; generated by PrusaSlicer 2.5.2+win64 on 2023-04-06 at 23:22:40 UTC


;
;
; 

; external perimeters extrusion width = 0.45mm
; perimeters extrusion width = 0.45mm
; infill extrusion width = 0.45mm
; solid infill extrusion width = 0.45mm
; top infill extrusion width = 0.40mm
; support material extrusion width = 0.35mm
; first layer extrusion width = 0.42mm

M73 P0 R105
M73 Q0 S105
M201 X1000 Y1000 Z200 E5000 ; sets maximum accelerations, mm/sec^2
M203 X200 Y200 Z12 E120 ; sets maximum feedrates, mm / sec
M204 P1250 R1250 T1250 ; sets acceleration (P, T) and retract acceleration (R), mm/sec^2
M205 X8.00 Y8.00 Z0.40 E4.50 ; sets the jerk limits, mm/sec
M205 S0 T0 ; sets the minimum extruding and travel feed rate, mm/sec
M107
;TYPE:Custom
M862.3 P "MK3S" ; printer model check
M862.1 P0.4 ; nozzle diameter check
M115 U3.12.2 ; tell printer latest fw version
G90 ; use absolute coordinates
M83 ; extruder relative mode
M104 S230 ; set extruder temp
M140 S85 ; set bed temp
M190 S85 ; wait for bed temp
M109 S230 ; wait for extruder temp
G28 W ; home all without mesh bed level
G80 ; mesh bed leveling

G1 Z0.2 F720
G1 Y-3 F1000 ; go outside print area
G92 E0
G1 X60 E9 F1000 ; intro line
G1 X100 E12.5 F1000 ; intro line

G92 E0
M221 S95

; Don't change E values below. Excessive value can damage the printer.
M907 E430 ; set extruder motor current
G21 ; set units to millimeters
G90 ; use absolute coordinates
M83 ; use relative distances for extrusion
M900 K0.08 ; Filament gcode LA 1.5
M900 K45 ; Filament gcode LA 1.0
M107
;LAYER_CHANGE
;Z:0.2
;HEIGHT:0.2
;BEFORE_LAYER_CHANGE
G92 E0.0
;0.2


G1 E-1 F2100
G1 Z.2 F720
;AFTER_LAYER_CHANGE
;0.2
G1 Z.4
G1 X76.541 Y63.462 F10800
G1 Z.2 F720
G1 E1 F2100
M204 S800
;TYPE:Skirt/Brim
;WIDTH:0.42
G1 F1200
G1 X83.825 Y56.244 E.32152
G1 X91.001 Y51.482 E.27006
G1 X100.23 Y46.868 E.3235
G1 X100.716 Y46.688 E.01627
G1 X109.945 Y44.381 E.29825
G1 X110.521 Y44.31 E.01821
G1 X139.479 Y44.31 E.90795
G1 X140.055 Y44.381 E.01821
M73 P0 R104
G1 X149.284 Y46.688 E.29825
G1 X149.77 Y46.868 E.01627
G1 X158.999 Y51.482 E.3235
G1 X166.175 Y56.244 E.27006
G1 X173.459 Y63.462 E.32152
G1 X178.518 Y71.001 E.28468
G1 X183.132 Y80.23 E.3235
G1 X183.312 Y80.716 E.01627
G1 X185.619 Y89.945 E.29825
G1 X185.69 Y90.521 E.01821
G1 X185.69 Y119.479 E.90795
G1 X185.619 Y120.055 E.01821
G1 X183.312 Y129.284 E.29825
G1 X183.132 Y129.77 E.01627
G1 X178.518 Y138.999 E.3235
G1 X173.459 Y146.538 E.28468
G1 X166.175 Y153.756 E.32152
G1 X158.999 Y158.518 E.27006
G1 X149.77 Y163.132 E.3235
G1 X149.284 Y163.312 E.01627
G1 X140.055 Y165.619 E.29825
G1 X139.479 Y165.69 E.01821
G1 X110.521 Y165.69 E.90795
G1 X109.945 Y165.619 E.01821
G1 X100.716 Y163.312 E.29825
G1 X100.23 Y163.132 E.01627
G1 X91.001 Y158.518 E.3235
G1 X83.462 Y153.459 E.28468
G1 X76.244 Y146.175 E.32152
G1 X71.482 Y138.999 E.27006
G1 X66.868 Y129.77 E.3235
G1 X66.688 Y129.284 E.01627
G1 X64.381 Y120.055 E.29825
G1 X64.31 Y119.479 E.01821
G1 X64.31 Y90.521 E.90795
G1 X64.381 Y89.945 E.01821
G1 X66.688 Y80.716 E.29825
G1 X66.868 Y80.23 E.01627
G1 X71.482 Y71.001 E.3235
G1 X76.508 Y63.512 E.2828
M204 S1000
; printing object Tecate-3-Air-Filter-Basket-1984-1985-Aftermarket-V1-Top.stl id:0 copy 0
;WIPE_START
G1 F8640
G1 X79.427 Y60.613 E-.95
;WIPE_END
G1 E-.05 F2100
G1 Z.4 F720
G1 X104.388 Y62.79 F10800
G1 Z.2 F720
G1 E1 F2100
M204 S800
;TYPE:Support material
G1 F1200
G1 X105.033 Y62.838 E.02028
G1 X105.396 Y62.905 E.01156
G1 X105.764 Y63.004 E.01197
G1 X106.344 Y63.232 E.01955
G1 X106.888 Y63.542 E.01963
G1 X107.184 Y63.758 E.01148
G1 X107.469 Y64.006 E.01185
G1 X107.887 Y64.465 E.01947
G1 X108.239 Y64.981 E.01956
G1 X108.418 Y65.319 E.01202
G1 X108.57 Y65.672 E.01203
G1 X120.012 Y100.907 E1.16155
G1 X120.099 Y101.275 E.01187
G1 X120.162 Y101.657 E.01216
G1 X120.204 Y102.262 E.01902
G1 X120.204 Y102.677 E.01299
G1 X120.175 Y103.101 E.01332
G1 X120.087 Y103.736 E.0201
G1 X119.885 Y104.565 E.02676
G1 X119.75 Y104.967 E.01332
G1 X119.593 Y105.356 E.01316
G1 X119.416 Y105.729 E.01294
G1 X119.221 Y106.08 E.01258
G1 X119.008 Y106.405 E.0122
G1 X118.778 Y106.707 E.01189
G1 X94.076 Y134.132 E1.15726
G1 X93.602 Y134.57 E.02023
G1 X93.193 Y134.862 E.01575
G1 X92.757 Y135.107 E.01571
G1 X92.298 Y135.301 E.01561
G1 X91.82 Y135.441 E.01563
G1 X91.206 Y135.536 E.01947
G1 X90.581 Y135.545 E.01958
G1 X90.083 Y135.488 E.01574
G1 X89.716 Y135.409 E.01176
G1 X89.346 Y135.299 E.01211
G1 X88.753 Y135.05 E.02016
G1 X88.407 Y134.862 E.01235
G1 X88.073 Y134.644 E.01252
G1 X87.761 Y134.407 E.01227
G1 X87.457 Y134.141 E.01266
G1 X86.976 Y133.626 E.0221
G1 X86.488 Y132.967 E.0257
G1 X85.536 Y131.606 E.05209
G1 X85.035 Y130.847 E.02851
G1 X84.198 Y129.503 E.04965
G1 X83.367 Y128.066 E.05204
G1 X82.587 Y126.599 E.0521
G1 X81.86 Y125.106 E.05208
G1 X81.184 Y123.586 E.05213
G1 X80.562 Y122.047 E.05207
G1 X79.995 Y120.484 E.05212
G1 X79.481 Y118.905 E.05209
G1 X79.024 Y117.309 E.05205
G1 X78.621 Y115.695 E.05213
G1 X78.441 Y114.885 E.02602
G1 X78.125 Y113.255 E.05208
G1 X77.977 Y112.359 E.02846
G1 X77.758 Y110.789 E.04971
G1 X77.584 Y109.136 E.05212
G1 X77.469 Y107.48 E.05206
G1 X77.433 Y106.652 E.02599
G1 X77.404 Y104.989 E.05213
G1 X77.433 Y103.328 E.0521
G1 X77.521 Y101.669 E.05209
G1 X77.667 Y100.015 E.05204
G1 X77.868 Y98.365 E.05214
G1 X78.129 Y96.723 E.0521
G1 X78.281 Y95.907 E.02604
G1 X78.627 Y94.282 E.05209
G1 X78.821 Y93.475 E.02603
G1 X79.252 Y91.869 E.05212
G1 X79.737 Y90.283 E.05202
G1 X80.277 Y88.711 E.05211
G1 X80.569 Y87.934 E.02604
G1 X81.194 Y86.394 E.05209
G1 X81.868 Y84.874 E.05216
G1 X82.26 Y84.057 E.02839
G1 X82.98 Y82.647 E.04964
G1 X83.787 Y81.192 E.05216
G1 X84.247 Y80.412 E.0284
G1 X85.089 Y79.068 E.04974
G1 X85.547 Y78.375 E.02605
G1 X86.5 Y77.015 E.05207
G1 X87.502 Y75.689 E.05209
G1 X88.547 Y74.399 E.05205
G1 X89.636 Y73.143 E.05212
G1 X90.771 Y71.928 E.05212
G1 X91.946 Y70.754 E.05209
G1 X93.161 Y69.622 E.05207
G1 X94.415 Y68.531 E.0521
G1 X95.116 Y67.956 E.02844
G1 X96.365 Y66.982 E.04966
G1 X97.709 Y66.004 E.05213
G1 X99.089 Y65.075 E.05214
G1 X100.497 Y64.198 E.05202
G1 X101.923 Y63.372 E.05166
G1 X102.45 Y63.143 E.01803
G1 X103.089 Y62.944 E.021
G1 X103.733 Y62.826 E.02052
G1 X104.332 Y62.79 E.01879
M204 S1000
G1 X102.566 Y68.723 F10800
M204 S800
G1 F1200
G1 X102.566 Y71.03 E.07234
G1 X100.258 Y71.03 E.07234
G1 X100.258 Y73.337 E.07234
G1 X97.951 Y73.337 E.07234
G1 X97.951 Y75.644 E.07234
G1 X95.644 Y75.644 E.07234
G1 X95.644 Y77.951 E.07234
G1 X93.337 Y77.951 E.07234
G1 X93.337 Y80.258 E.07234
G1 X91.03 Y80.258 E.07234
G1 X91.03 Y82.566 E.07234
G1 X88.723 Y82.566 E.07234
G1 X88.723 Y87.18 E.14467
G1 X86.416 Y87.18 E.07234
G1 X86.416 Y91.794 E.14467
G1 X84.109 Y91.794 E.07234
G1 X84.109 Y98.715 E.21701
G1 X81.802 Y98.715 E.07234
G1 X81.802 Y111.285 E.39412
G1 X84.109 Y111.285 E.07234
G1 X84.109 Y118.206 E.21701
G1 X86.416 Y118.206 E.07234
G1 X86.416 Y122.82 E.14467
G1 X88.723 Y122.82 E.07234
G1 X88.723 Y127.434 E.14467
G1 X92.065 Y127.434 E.10477
G1 X92.065 Y125.127 E.07234
G1 X94.372 Y125.127 E.07234
G1 X94.372 Y122.82 E.07234
G1 X96.679 Y122.82 E.07234
G1 X96.679 Y120.513 E.07234
G1 X98.986 Y120.513 E.07234
G1 X98.986 Y118.206 E.07234
G1 X101.293 Y118.206 E.07234
G1 X101.293 Y115.899 E.07234
G1 X103.6 Y115.899 E.07234
G1 X103.6 Y113.592 E.07234
G1 X105.907 Y113.592 E.07234
G1 X105.907 Y111.285 E.07234
G1 X108.214 Y111.285 E.07234
G1 X108.214 Y108.978 E.07234
G1 X110.521 Y108.978 E.07234
G1 X110.521 Y104.364 E.14467
G1 X112.828 Y104.364 E.07234
G1 X112.828 Y102.057 E.07234
G1 X115.135 Y102.057 E.07234
G1 X115.135 Y101.022 E.03243
G1 X112.828 Y101.022 E.07234
G1 X112.828 Y91.794 E.28935
G1 X110.521 Y91.794 E.07234
G1 X110.521 Y84.873 E.21701
G1 X108.214 Y84.873 E.07234
G1 X108.214 Y77.951 E.21701
G1 X105.907 Y77.951 E.07234
G1 X105.907 Y71.03 E.21701
G1 X103.6 Y71.03 E.07234
G1 X103.6 Y68.723 E.07234
G1 X102.622 Y68.723 E.03066
M204 S1000
;WIPE_START
G1 F8640
G1 X103.6 Y68.723 E-.22577
G1 X103.6 Y71.03 E-.53271
G1 X104.429 Y71.03 E-.19151
;WIPE_END
G1 E-.05 F2100
G1 Z.4 F720
G1 X119.553 Y105.006 F10800
G1 Z.2 F720
G1 E1 F2100
M204 S800
G1 F1200
G1 X119.553 Y100.586 E.1386
G1 X119.134 Y99.295 E.04254
G1 X119.134 Y105.533 E.19559
G1 X118.93 Y105.905 E.0133
G1 X118.715 Y106.23 E.01222
G1 X118.715 Y98.004 E.25791
G1 X118.296 Y96.714 E.04254
G1 X118.296 Y106.739 E.31432
G1 X117.877 Y107.204 E.01963
G1 X117.877 Y95.423 E.36937
G1 X117.458 Y94.133 E.04254
G1 X117.458 Y107.669 E.42442
G1 X117.039 Y108.134 E.01963
G1 X117.039 Y92.842 E.47947
G1 X116.62 Y91.551 E.04254
G1 X116.62 Y108.599 E.53452
G1 X116.201 Y109.064 E.01963
G1 X116.201 Y90.261 E.58957
G1 X115.783 Y88.97 E.04254
G1 X115.783 Y109.53 E.64463
G1 X115.364 Y109.995 E.01963
G1 X115.364 Y87.68 E.69968
G1 X114.945 Y86.389 E.04254
M73 Q0 S104
G1 X114.945 Y100.683 E.44817
G1 X114.526 Y100.683 E.01314
G1 X114.526 Y85.098 E.48864
G1 X114.107 Y83.808 E.04254
G1 X114.107 Y100.683 E.5291
G1 X113.688 Y100.683 E.01314
G1 X113.688 Y82.517 E.56957
G1 X113.269 Y81.227 E.04254
G1 X113.269 Y100.683 E.61003
G1 X113.168 Y100.683 E.00317
G1 X113.168 Y91.455 E.28935
G1 X112.85 Y91.455 E.00997
G1 X112.85 Y79.936 E.36115
G1 X112.431 Y78.646 E.04254
G1 X112.431 Y91.455 E.40162
G1 X112.012 Y91.455 E.01314
G1 X112.012 Y77.355 E.44208
G1 X111.593 Y76.064 E.04254
G1 X111.593 Y91.455 E.48255
G1 X111.174 Y91.455 E.01314
G1 X111.174 Y74.774 E.52301
G1 X110.755 Y73.483 E.04254
M73 P1 R104
M73 Q1 S104
G1 X110.755 Y84.533 E.34647
G1 X110.336 Y84.533 E.01314
G1 X110.336 Y72.193 E.38694
G1 X109.917 Y70.902 E.04254
G1 X109.917 Y84.533 E.4274
G1 X109.498 Y84.533 E.01314
G1 X109.498 Y69.611 E.46787
G1 X109.079 Y68.321 E.04254
G1 X109.079 Y84.533 E.50832
G1 X108.66 Y84.533 E.01314
G1 X108.66 Y67.031 E.54878
G1 X108.241 Y65.763 E.04185
G1 X108.241 Y77.612 E.37151
G1 X107.822 Y77.612 E.01314
G1 X107.822 Y64.954 E.39687
G1 X107.622 Y64.677 E.01074
G1 X107.403 Y64.422 E.01052
G1 X107.403 Y77.612 E.41356
G1 X106.984 Y77.612 E.01314
M73 P1 R103
G1 X106.984 Y64.033 E.42577
G1 X106.565 Y63.737 E.01607
G1 X106.565 Y77.612 E.43503
G1 X106.246 Y77.612 E.00999
G1 X106.246 Y70.691 E.21701
G1 X106.146 Y70.691 E.00315
G1 X106.146 Y63.515 E.22501
G1 X105.727 Y63.348 E.01413
G1 X105.727 Y70.691 E.23021
G1 X105.308 Y70.691 E.01314
G1 X105.308 Y63.233 E.23383
G1 X104.889 Y63.161 E.01333
G1 X104.889 Y70.691 E.23608
G1 X104.47 Y70.691 E.01314
G1 X104.47 Y63.13 E.23705
G1 X104.051 Y63.138 E.01314
G1 X104.051 Y70.691 E.23681
G1 X103.939 Y70.691 E.00351
G1 X103.939 Y68.384 E.07234
G1 X103.632 Y68.384 E.00963
G1 X103.632 Y63.182 E.16309
G1 X103.213 Y63.264 E.01338
G1 X103.213 Y68.384 E.16054
G1 X102.794 Y68.384 E.01314
G1 X102.794 Y63.382 E.15682
G1 X102.375 Y63.539 E.01402
G1 X102.375 Y68.384 E.15191
G1 X102.226 Y68.384 E.00467
G1 X102.226 Y70.691 E.07234
G1 X101.956 Y70.691 E.00846
G1 X101.956 Y63.743 E.21784
G1 X101.537 Y63.981 E.0151
G1 X101.537 Y70.691 E.21039
G1 X101.118 Y70.691 E.01314
G1 X101.118 Y64.225 E.20274
G1 X100.699 Y64.472 E.01526
G1 X100.699 Y70.691 E.19498
G1 X100.28 Y70.691 E.01314
G1 X100.28 Y64.727 E.18698
G1 X99.861 Y64.986 E.01543
G1 X99.861 Y72.998 E.25122
G1 X99.442 Y72.998 E.01314
G1 X99.442 Y65.252 E.24287
G1 X99.023 Y65.525 E.01569
G1 X99.023 Y72.998 E.23429
G1 X98.604 Y72.998 E.01314
G1 X98.604 Y65.803 E.22558
G1 X98.185 Y66.089 E.0159
G1 X98.185 Y72.998 E.21662
G1 X97.766 Y72.998 E.01314
G1 X97.766 Y66.38 E.2075
G1 X97.348 Y66.68 E.01616
G1 X97.348 Y75.305 E.27042
G1 X96.929 Y75.305 E.01314
G1 X96.929 Y66.987 E.26079
G1 X96.51 Y67.299 E.01637
G1 X96.51 Y75.305 E.25103
G1 X96.091 Y75.305 E.01314
G1 X96.091 Y67.621 E.24093
G1 X95.672 Y67.949 E.01668
G1 X95.672 Y75.305 E.23064
G1 X95.305 Y75.305 E.0115
G1 X95.305 Y77.612 E.07234
G1 X95.253 Y77.612 E.00164
G1 X95.253 Y68.282 E.29254
G1 X94.834 Y68.626 E.017
G1 X94.834 Y77.612 E.28175
G1 X94.415 Y77.612 E.01314
G1 X94.415 Y68.978 E.27072
G1 X93.996 Y69.337 E.0173
G1 X93.996 Y77.612 E.25946
G1 X93.577 Y77.612 E.01314
G1 X93.577 Y69.708 E.24783
G1 X93.158 Y70.086 E.01769
G1 X93.158 Y77.612 E.23598
G1 X92.998 Y77.612 E.00501
G1 X92.998 Y79.919 E.07234
G1 X92.739 Y79.919 E.00812
G1 X92.739 Y70.471 E.29625
G1 X92.32 Y70.868 E.0181
G1 X92.32 Y79.919 E.2838
G1 X91.901 Y79.919 E.01314
G1 X91.901 Y71.275 E.27103
G1 X91.482 Y71.69 E.0185
G1 X91.482 Y79.919 E.258
G1 X91.063 Y79.919 E.01314
G1 X91.063 Y72.115 E.24469
G1 X90.644 Y72.555 E.01906
G1 X90.644 Y82.226 E.30322
G1 X90.225 Y82.226 E.01314
G1 X90.225 Y73.004 E.28914
G1 X89.806 Y73.464 E.0195
G1 X89.806 Y82.226 E.27473
G1 X89.387 Y82.226 E.01314
G1 X89.387 Y73.939 E.25985
G1 X88.968 Y74.428 E.0202
G1 X88.968 Y82.226 E.2445
G1 X88.549 Y82.226 E.01314
G1 X88.549 Y74.929 E.22881
G1 X88.13 Y75.443 E.02081
G1 X88.13 Y86.84 E.35735
G1 X87.711 Y86.84 E.01314
G1 X87.711 Y75.973 E.34072
G1 X87.292 Y76.519 E.02155
G1 X87.292 Y86.84 E.32363
G1 X86.873 Y86.84 E.01314
G1 X86.873 Y77.082 E.30598
G1 X86.454 Y77.665 E.02252
G1 X86.454 Y86.84 E.28769
G1 X86.077 Y86.84 E.01184
G1 X86.077 Y91.455 E.14467
G1 X86.035 Y91.455 E.0013
G1 X86.035 Y78.265 E.41354
G1 X85.616 Y78.886 E.02348
G1 X85.616 Y91.455 E.39407
G1 X85.197 Y91.455 E.01314
G1 X85.197 Y79.53 E.37388
G1 X84.778 Y80.197 E.02469
G1 X84.778 Y91.455 E.35298
G1 X84.359 Y91.455 E.01314
G1 X84.359 Y80.889 E.33128
G1 X83.94 Y81.61 E.02616
G1 X83.94 Y91.455 E.30865
G1 X83.77 Y91.455 E.00535
G1 X83.77 Y98.376 E.21701
G1 X83.521 Y98.376 E.00779
G1 X83.521 Y82.362 E.50209
G1 X83.102 Y83.147 E.02789
G1 X83.102 Y98.376 E.47749
G1 X82.683 Y98.376 E.01314
G1 X82.683 Y83.968 E.45174
G1 X82.264 Y84.831 E.03008
G1 X82.264 Y98.376 E.42467
G1 X81.845 Y98.376 E.01314
G1 X81.845 Y85.744 E.39605
G1 X81.426 Y86.718 E.03324
G1 X81.426 Y123.285 E1.14653
G1 X81.845 Y124.258 E.0332
G1 X81.845 Y111.624 E.39611
G1 X82.264 Y111.624 E.01314
G1 X82.264 Y125.165 E.42456
G1 X82.683 Y126.028 E.03009
G1 X82.683 Y111.624 E.45163
G1 X83.102 Y111.624 E.01314
G1 X83.102 Y126.853 E.47749
G1 X83.521 Y127.638 E.0279
G1 X83.521 Y111.624 E.5021
G1 X83.77 Y111.624 E.00779
G1 X83.77 Y118.546 E.21701
G1 X83.94 Y118.546 E.00535
G1 X83.94 Y128.388 E.3086
G1 X84.359 Y129.109 E.02614
G1 X84.359 Y118.546 E.3312
G1 X84.778 Y118.546 E.01314
G1 X84.778 Y129.803 E.35297
G1 X85.197 Y130.47 E.02469
G1 X85.197 Y118.546 E.37387
G1 X85.616 Y118.546 E.01314
G1 X85.616 Y131.112 E.39402
G1 X86.035 Y131.734 E.02351
G1 X86.035 Y118.546 E.41352
G1 X86.077 Y118.546 E.0013
G1 X86.077 Y123.16 E.14467
G1 X86.454 Y123.16 E.01184
G1 X86.454 Y132.335 E.28769
G1 X86.873 Y132.917 E.02249
G1 X86.873 Y123.16 E.30594
G1 X87.292 Y123.16 E.01314
G1 X87.292 Y133.475 E.32344
G1 X87.711 Y133.913 E.019
G1 X87.711 Y123.16 E.33716
G1 X88.13 Y123.16 E.01314
G1 X88.13 Y134.264 E.34817
G1 X88.549 Y134.55 E.01591
G1 X88.549 Y127.774 E.21247
G1 X88.968 Y127.774 E.01314
M73 Q1 S103
G1 X88.968 Y134.777 E.21958
G1 X89.387 Y134.953 E.01425
G1 X89.387 Y127.774 E.22509
G1 X89.806 Y127.774 E.01314
G1 X89.806 Y135.082 E.22914
G1 X90.225 Y135.166 E.0134
G1 X90.225 Y127.774 E.23176
G1 X90.644 Y127.774 E.01314
G1 X90.644 Y135.208 E.2331
G1 X91.063 Y135.206 E.01314
G1 X91.063 Y127.774 E.23303
G1 X91.482 Y127.774 E.01314
G1 X91.482 Y135.16 E.23159
G1 X91.901 Y135.07 E.01344
G1 X91.901 Y127.774 E.22876
G1 X92.32 Y127.774 E.01314
G1 X92.32 Y134.929 E.22435
G1 X92.739 Y134.735 E.01448
G1 X92.739 Y125.467 E.2906
G1 X93.158 Y125.467 E.01314
G1 X93.158 Y134.477 E.28252
G1 X93.577 Y134.146 E.01675
G1 X93.577 Y125.467 E.27214
G1 X93.996 Y125.467 E.01314
G1 X93.996 Y133.718 E.2587
G1 X94.415 Y133.253 E.01963
G1 X94.415 Y125.467 E.24412
G1 X94.711 Y125.467 E.00929
G1 X94.711 Y123.16 E.07234
G1 X94.834 Y123.16 E.00385
G1 X94.834 Y132.787 E.30187
G1 X95.253 Y132.322 E.01963
G1 X95.253 Y123.16 E.28729
G1 X95.672 Y123.16 E.01314
G1 X95.672 Y131.857 E.27271
G1 X96.091 Y131.392 E.01963
G1 X96.091 Y123.16 E.25813
G1 X96.51 Y123.16 E.01314
G1 X96.51 Y130.927 E.24354
G1 X96.929 Y130.462 E.01963
G1 X96.929 Y123.16 E.22896
G1 X97.018 Y123.16 E.00281
G1 X97.018 Y120.853 E.07234
G1 X97.348 Y120.853 E.01033
G1 X97.348 Y129.997 E.28671
G1 X97.766 Y129.532 E.01963
G1 X97.766 Y120.853 E.27212
G1 X98.185 Y120.853 E.01314
