; generated by PrusaSlicer 2.5.2+win64 on 2023-04-03 at 21:36:31 UTC


;
;
; 

; external perimeters extrusion width = 0.45mm
; perimeters extrusion width = 0.45mm
; infill extrusion width = 0.45mm
; solid infill extrusion width = 0.45mm
; top infill extrusion width = 0.40mm
; support material extrusion width = 0.35mm
; first layer extrusion width = 0.42mm

M73 P0 R108
M73 Q0 S108
M201 X1000 Y1000 Z200 E5000 ; sets maximum accelerations, mm/sec^2
M203 X200 Y200 Z12 E120 ; sets maximum feedrates, mm / sec
M204 P1250 R1250 T1250 ; sets acceleration (P, T) and retract acceleration (R), mm/sec^2
M205 X8.00 Y8.00 Z0.40 E4.50 ; sets the jerk limits, mm/sec
M205 S0 T0 ; sets the minimum extruding and travel feed rate, mm/sec
M107
;TYPE:Custom
M862.3 P "MK3S" ; printer model check
M862.1 P0.4 ; nozzle diameter check
M115 U3.12.2 ; tell printer latest fw version
G90 ; use absolute coordinates
M83 ; extruder relative mode
M104 S230 ; set extruder temp
M140 S85 ; set bed temp
M190 S85 ; wait for bed temp
M109 S230 ; wait for extruder temp
G28 W ; home all without mesh bed level
G80 ; mesh bed leveling

G1 Z0.2 F720
G1 Y-3 F1000 ; go outside print area
G92 E0
G1 X60 E9 F1000 ; intro line
G1 X100 E12.5 F1000 ; intro line

G92 E0
M221 S95

; Don't change E values below. Excessive value can damage the printer.
M907 E430 ; set extruder motor current
G21 ; set units to millimeters
G90 ; use absolute coordinates
M83 ; use relative distances for extrusion
M900 K0.08 ; Filament gcode LA 1.5
M900 K45 ; Filament gcode LA 1.0
M107
;LAYER_CHANGE
;Z:0.2
;HEIGHT:0.2
;BEFORE_LAYER_CHANGE
G92 E0.0
;0.2


G1 E-1 F2100
M73 P0 R107
G1 Z.2 F720
;AFTER_LAYER_CHANGE
;0.2
G1 Z.4
G1 X73.937 Y63.825 F10800
G1 Z.2 F720
G1 E1 F2100
M204 S800
;TYPE:Skirt/Brim
;WIDTH:0.42
G1 F1200
G1 X83.462 Y54.234 E.42382
G1 X90.746 Y49.323 E.27543
G1 X95.927 Y46.739 E.18154
G1 X103.023 Y44.381 E.23447
G1 X112.252 Y42.073 E.29825
G1 X112.828 Y42.002 E.01821
G1 X137.172 Y42.002 E.76327
G1 X137.748 Y42.073 E.01821
G1 X146.977 Y44.381 E.29825
G1 X154.384 Y46.868 E.24501
G1 X159.254 Y49.323 E.171
G1 X166.175 Y53.937 E.26081
G1 X175.766 Y63.462 E.42382
G1 X180.677 Y70.746 E.27543
G1 X183.261 Y75.927 E.18154
G1 X185.619 Y83.023 E.23447
G1 X187.927 Y92.252 E.29825
G1 X187.998 Y92.828 E.01821
G1 X187.998 Y117.172 E.76327
G1 X187.927 Y117.748 E.01821
G1 X185.619 Y126.977 E.29825
G1 X183.132 Y134.384 E.24501
G1 X180.677 Y139.254 E.171
G1 X176.063 Y146.175 E.26081
G1 X166.538 Y155.766 E.42382
G1 X159.254 Y160.677 E.27543
G1 X154.073 Y163.261 E.18154
G1 X146.977 Y165.619 E.23447
G1 X137.748 Y167.927 E.29825
G1 X137.172 Y167.998 E.01821
G1 X112.828 Y167.998 E.76327
G1 X112.252 Y167.927 E.01821
G1 X103.023 Y165.619 E.29825
G1 X95.616 Y163.132 E.24501
G1 X90.746 Y160.677 E.171
G1 X83.825 Y156.063 E.26081
G1 X74.234 Y146.538 E.42382
G1 X69.323 Y139.254 E.27543
G1 X66.739 Y134.073 E.18154
G1 X64.381 Y126.977 E.23447
G1 X62.073 Y117.748 E.29825
G1 X62.002 Y117.172 E.01821
G1 X62.002 Y92.828 E.76327
G1 X62.073 Y92.252 E.01821
G1 X64.381 Y83.023 E.29825
G1 X66.868 Y75.616 E.24501
G1 X69.323 Y70.746 E.171
G1 X73.904 Y63.875 E.25893
M204 S1000
; printing object Tecate-3-Air-Filter-Basket-1984-1985-V3-Top.stl id:0 copy 0
;WIPE_START
G1 F8640
G1 X76.801 Y60.953 E-.95
;WIPE_END
G1 E-.05 F2100
G1 Z.4 F720
G1 X75.855 Y91.623 F10800
G1 Z.2 F720
G1 E1 F2100
M204 S800
;TYPE:Support material
G1 F1200
G1 X76.16 Y91.649 E.00958
G1 X76.46 Y91.708 E.00958
G1 X76.941 Y91.873 E.01596
G1 X77.213 Y92.012 E.00958
G1 X77.47 Y92.178 E.00958
G1 X77.854 Y92.513 E.01596
G1 X78.054 Y92.743 E.00958
G1 X78.23 Y92.993 E.00958
G1 X78.378 Y93.261 E.00958
G1 X78.497 Y93.542 E.00958
G1 X78.587 Y93.834 E.00958
G1 X78.645 Y94.134 E.00958
G1 X78.672 Y94.643 E.01596
G1 X78.645 Y94.947 E.00958
G1 X78.587 Y95.247 E.00958
G1 X78.421 Y95.728 E.01596
G1 X78.174 Y96.174 E.01596
G1 X77.99 Y96.418 E.00958
G1 X77.782 Y96.641 E.00958
G1 X77.386 Y96.962 E.01596
G1 X77.124 Y97.119 E.00958
G1 X76.847 Y97.248 E.00958
G1 X76.558 Y97.348 E.00958
G1 X76.261 Y97.416 E.00958
G1 X75.957 Y97.454 E.00958
G1 X75.652 Y97.459 E.00958
G1 X75.347 Y97.432 E.00958
G1 X75.047 Y97.374 E.00958
G1 X74.755 Y97.285 E.00958
G1 X74.474 Y97.165 E.00958
G1 X74.206 Y97.017 E.00958
G1 X73.956 Y96.842 E.00958
G1 X73.584 Y96.495 E.01596
G1 X73.391 Y96.257 E.00958
G1 X73.225 Y96.001 E.00958
G1 X73.01 Y95.539 E.01596
G1 X72.878 Y95.048 E.01596
G1 X72.841 Y94.744 E.00959
G1 X72.835 Y94.439 E.00958
G1 X72.862 Y94.134 E.00958
G1 X72.92 Y93.834 E.00958
G1 X73.086 Y93.353 E.01596
G1 X73.333 Y92.908 E.01596
G1 X73.517 Y92.664 E.00958
G1 X73.725 Y92.44 E.00958
G1 X74.121 Y92.12 E.01596
G1 X74.383 Y91.963 E.00959
G1 X74.66 Y91.834 E.00958
G1 X74.949 Y91.734 E.00958
G1 X75.246 Y91.665 E.00958
G1 X75.55 Y91.628 E.00958
G1 X75.799 Y91.622 E.00781
M204 S1000
G1 X78.075 Y96.016 F10800
M204 S800
G1 F1200
G1 X78.075 Y93.413 E.08159
G1 X77.893 Y93.098 E.01142
G1 X77.656 Y92.797 E.012
G1 X77.656 Y96.284 E.10933
G1 X77.48 Y96.459 E.00775
G1 X77.237 Y96.652 E.00975
G1 X77.237 Y92.43 E.13239
G1 X76.818 Y92.19 E.01513
G1 X76.818 Y96.891 E.1474
G1 X76.399 Y97.039 E.01393
G1 X76.399 Y92.043 E.15666
G1 X75.98 Y91.971 E.01333
G1 X75.98 Y97.111 E.16117
G1 X75.561 Y97.114 E.01314
G1 X75.561 Y91.968 E.16136
G1 X75.142 Y92.034 E.0133
G1 X75.142 Y97.048 E.15719
G1 X74.723 Y96.906 E.01386
G1 X74.723 Y92.175 E.14833
G1 X74.304 Y92.406 E.015
G1 X74.304 Y96.675 E.13386
G1 X74.095 Y96.518 E.00821
G1 X73.885 Y96.32 E.00904
G1 X73.885 Y92.762 E.11157
G1 X73.666 Y93.024 E.01072
G1 X73.466 Y93.347 E.01192
G1 X73.466 Y96.067 E.08527
M204 S1000
;WIPE_START
G1 F8640
G1 X73.466 Y93.347 E-.62795
G1 X73.666 Y93.024 E-.0878
G1 X73.885 Y92.762 E-.07893
G1 X73.885 Y93.434 E-.15533
;WIPE_END
G1 E-.05 F2100
G1 Z.4 F720
G1 X80.525 Y99.309 F10800
G1 Z.2 F720
G1 E1 F2100
M204 S800
G1 F1200
G1 X81.045 Y99.335 E.01633
G1 X81.573 Y99.419 E.01676
G1 X118.76 Y107.336 E1.1921
G1 X119.136 Y107.449 E.0123
G1 X119.514 Y107.593 E.01269
G1 X119.892 Y107.768 E.01305
G1 X120.266 Y107.972 E.01336
G1 X120.633 Y108.203 E.0136
G1 X120.991 Y108.458 E.01379
G1 X121.348 Y108.744 E.01434
G1 X121.826 Y109.188 E.02044
G1 X122.128 Y109.511 E.01385
G1 X122.407 Y109.847 E.01371
G1 X122.779 Y110.37 E.02013
G1 X122.993 Y110.727 E.01305
G1 X123.176 Y111.088 E.01269
G1 X123.391 Y111.636 E.01846
G1 X135.116 Y147.756 E1.19068
G1 X135.26 Y148.399 E.02068
G1 X135.316 Y149.049 E.02045
G1 X135.28 Y149.696 E.02029
G1 X135.186 Y150.203 E.01617
G1 X134.989 Y150.815 E.02018
G1 X134.769 Y151.282 E.01618
G1 X134.42 Y151.828 E.02032
G1 X133.995 Y152.325 E.0205
G1 X133.706 Y152.596 E.01242
G1 X133.395 Y152.846 E.01252
G1 X133.062 Y153.072 E.01262
G1 X132.71 Y153.275 E.01273
G1 X132.34 Y153.452 E.01285
G1 X131.955 Y153.603 E.01296
G1 X131.557 Y153.727 E.01307
G1 X131.148 Y153.825 E.01318
G1 X130.134 Y153.952 E.03206
G1 X128.422 Y154.101 E.05387
G1 X126.707 Y154.19 E.05386
G1 X124.989 Y154.22 E.05387
G1 X123.271 Y154.189 E.05387
G1 X121.555 Y154.099 E.05387
G1 X119.844 Y153.949 E.05386
G1 X118.139 Y153.739 E.05387
G1 X116.442 Y153.47 E.05387
G1 X114.756 Y153.142 E.05386
G1 X113.082 Y152.755 E.05387
G1 X111.422 Y152.31 E.05386
G1 X109.78 Y151.807 E.05387
G1 X108.155 Y151.248 E.05387
G1 X107.275 Y150.917 E.02947
G1 X105.758 Y150.303 E.05133
G1 X104.189 Y149.604 E.05387
G1 X102.645 Y148.85 E.05387
G1 X101.128 Y148.043 E.05387
G1 X100.311 Y147.579 E.02947
G1 X98.908 Y146.735 E.05133
G1 X97.467 Y145.799 E.05387
G1 X96.06 Y144.813 E.05387
G1 X94.689 Y143.779 E.05386
G1 X94.016 Y143.244 E.02694
G1 X92.7 Y142.139 E.05387
G1 X91.424 Y140.989 E.05387
G1 X90.188 Y139.796 E.05387
G1 X88.995 Y138.56 E.05387
G1 X87.846 Y137.283 E.05387
G1 X86.742 Y135.966 E.05387
G1 X85.685 Y134.612 E.05387
G1 X84.675 Y133.222 E.05387
G1 X83.715 Y131.798 E.05386
G1 X82.805 Y130.34 E.05387
G1 X82.369 Y129.6 E.02694
G1 X81.536 Y128.097 E.05387
G1 X80.757 Y126.566 E.05387
G1 X80.031 Y125.009 E.05387
G1 X79.36 Y123.428 E.05387
G1 X78.745 Y121.824 E.05387
G1 X78.186 Y120.199 E.05387
G1 X77.684 Y118.556 E.05386
G1 X77.24 Y116.896 E.05387
G1 X76.853 Y115.222 E.05387
G1 X76.526 Y113.536 E.05387
G1 X76.258 Y111.839 E.05387
G1 X76.049 Y110.134 E.05387
G1 X75.966 Y109.279 E.02693
G1 X75.847 Y107.565 E.05387
G1 X75.787 Y105.848 E.05387
G1 X75.787 Y104.143 E.05345
G1 X75.879 Y103.412 E.0231
G1 X76.008 Y102.874 E.01736
G1 X76.137 Y102.483 E.01289
G1 X76.293 Y102.107 E.01278
G1 X76.476 Y101.747 E.01266
G1 X76.684 Y101.404 E.01256
G1 X76.916 Y101.082 E.01246
G1 X77.172 Y100.782 E.01237
G1 X77.451 Y100.505 E.0123
G1 X77.853 Y100.176 E.0163
G1 X78.177 Y99.962 E.01217
G1 X78.517 Y99.776 E.01215
G1 X78.871 Y99.62 E.01213
G1 X79.237 Y99.495 E.01214
G1 X79.614 Y99.402 E.01217
G1 X79.999 Y99.34 E.01221
G1 X80.468 Y99.31 E.01476
M204 S1000
G1 X79.495 Y105.636 F10800
M204 S800
G1 F1200
G1 X79.495 Y106.671 E.03243
G1 X81.802 Y106.671 E.07234
G1 X81.802 Y118.206 E.36168
G1 X84.109 Y118.206 E.07234
G1 X84.109 Y122.82 E.14467
G1 X86.416 Y122.82 E.07234
G1 X86.416 Y127.434 E.14467
G1 X88.723 Y127.434 E.07234
G1 X88.723 Y129.742 E.07234
G1 X91.03 Y129.742 E.07234
G1 X91.03 Y132.049 E.07234
G1 X93.337 Y132.049 E.07234
G1 X93.337 Y134.356 E.07234
G1 X95.644 Y134.356 E.07234
G1 X95.644 Y136.663 E.07234
G1 X97.951 Y136.663 E.07234
G1 X97.951 Y138.97 E.07234
G1 X100.259 Y138.97 E.07234
G1 X100.259 Y141.277 E.07234
G1 X102.566 Y141.277 E.07234
G1 X102.566 Y143.584 E.07234
G1 X107.18 Y143.584 E.14467
G1 X107.18 Y145.891 E.07234
G1 X111.794 Y145.891 E.14467
G1 X111.794 Y148.198 E.07234
G1 X123.329 Y148.198 E.36168
G1 X123.329 Y150.505 E.07234
G1 X126.671 Y150.505 E.10477
G1 X126.671 Y148.198 E.07234
G1 X128.978 Y148.198 E.07234
G1 X128.978 Y142.55 E.17711
G1 X126.671 Y142.55 E.07234
G1 X126.671 Y135.628 E.21701
G1 X124.364 Y135.628 E.07234
G1 X124.364 Y128.707 E.21701
G1 X122.057 Y128.707 E.07234
G1 X122.057 Y121.786 E.21701
G1 X119.749 Y121.786 E.07234
G1 X119.749 Y114.865 E.21701
G1 X117.442 Y114.865 E.07234
G1 X117.442 Y112.558 E.07234
G1 X112.828 Y112.558 E.14467
G1 X112.828 Y110.251 E.07234
G1 X101.293 Y110.251 E.36168
G1 X101.293 Y107.943 E.07234
G1 X92.065 Y107.943 E.28935
G1 X92.065 Y105.636 E.07234
G1 X79.551 Y105.636 E.39234
M204 S1000
;WIPE_START
G1 F8640
G1 X83.666 Y105.636 E-.95
;WIPE_END
G1 E-.05 F2100
G1 Z.4 F720
G1 X134.636 Y151.169 F10800
G1 Z.2 F720
G1 E1 F2100
M204 S800
G1 F1200
G1 X134.636 Y147.373 E.11901
G1 X134.217 Y146.082 E.04254
G1 X134.217 Y151.528 E.17075
G1 X133.998 Y151.816 E.01135
G1 X133.799 Y152.039 E.00938
G1 X133.799 Y144.792 E.22724
G1 X133.38 Y143.501 E.04254
G1 X133.38 Y152.428 E.27988
G1 X132.961 Y152.734 E.01627
G1 X132.961 Y142.211 E.32995
G1 X132.542 Y140.92 E.04254
M73 Q0 S107
G1 X132.542 Y152.979 E.37811
G1 X132.123 Y153.175 E.0145
G1 X132.123 Y139.63 E.4247
G1 X131.704 Y138.339 E.04254
G1 X131.704 Y153.329 E.47001
G1 X131.285 Y153.447 E.01364
G1 X131.285 Y137.049 E.51415
G1 X130.866 Y135.758 E.04254
G1 X130.866 Y153.527 E.55713
G1 X130.447 Y153.575 E.01322
G1 X130.447 Y134.468 E.59909
G1 X130.028 Y133.177 E.04254
G1 X130.028 Y153.621 E.641
G1 X129.609 Y153.661 E.0132
G1 X129.609 Y131.886 E.68273
G1 X129.19 Y130.596 E.04254
G1 X129.19 Y153.7 E.72442
G1 X128.771 Y153.733 E.01318
G1 X128.771 Y148.538 E.1629
G1 X128.352 Y148.538 E.01314
G1 X128.352 Y153.765 E.16391
G1 X127.933 Y153.791 E.01316
G1 X127.933 Y148.538 E.16471
G1 X127.514 Y148.538 E.01314
G1 X127.514 Y153.816 E.16549
G1 X127.095 Y153.834 E.01315
G1 X127.095 Y148.538 E.16606
G1 X127.01 Y148.538 E.00266
G1 X127.01 Y150.845 E.07234
G1 X126.676 Y150.845 E.01048
G1 X126.676 Y153.852 E.09428
G1 X126.257 Y153.862 E.01314
M73 P1 R106
G1 X126.257 Y150.845 E.09462
G1 X125.838 Y150.845 E.01314
M73 Q1 S107
G1 X125.838 Y153.873 E.09496
G1 X125.419 Y153.877 E.01314
G1 X125.419 Y150.845 E.09507
G1 X125 Y150.845 E.01314
G1 X125 Y153.88 E.09518
G1 X124.581 Y153.877 E.01314
G1 X124.581 Y150.845 E.09507
G1 X124.162 Y150.845 E.01314
G1 X124.162 Y153.873 E.09495
G1 X123.743 Y153.862 E.01314
G1 X123.743 Y150.845 E.09462
G1 X123.324 Y150.845 E.01314
G1 X123.324 Y153.851 E.09427
G1 X122.905 Y153.834 E.01315
G1 X122.905 Y148.538 E.16606
G1 X122.486 Y148.538 E.01314
G1 X122.486 Y153.815 E.16548
G1 X122.067 Y153.791 E.01316
G1 X122.067 Y148.538 E.1647
G1 X121.648 Y148.538 E.01314
G1 X121.648 Y153.765 E.1639
G1 X121.229 Y153.733 E.01317
G1 X121.229 Y148.538 E.1629
G1 X120.81 Y148.538 E.01314
G1 X120.81 Y153.7 E.16186
G1 X120.391 Y153.661 E.01319
G1 X120.391 Y148.538 E.16064
G1 X119.972 Y148.538 E.01314
G1 X119.972 Y153.62 E.15937
G1 X119.553 Y153.574 E.01322
G1 X119.553 Y148.538 E.15792
G1 X119.134 Y148.538 E.01314
G1 X119.134 Y153.526 E.15642
G1 X118.715 Y153.473 E.01324
G1 X118.715 Y148.538 E.15475
G1 X118.296 Y148.538 E.01314
G1 X118.296 Y153.418 E.15301
G1 X117.877 Y153.357 E.01327
G1 X117.877 Y148.538 E.15111
G1 X117.458 Y148.538 E.01314
G1 X117.458 Y153.294 E.14914
G1 X117.039 Y153.226 E.01331
G1 X117.039 Y148.538 E.14701
G1 X116.62 Y148.538 E.01314
G1 X116.62 Y153.156 E.1448
G1 X116.201 Y153.08 E.01335
G1 X116.201 Y148.538 E.14243
G1 X115.783 Y148.538 E.01314
G1 X115.783 Y153.003 E.14
G1 X115.364 Y152.919 E.01339
G1 X115.364 Y148.538 E.13739
G1 X114.945 Y148.538 E.01314
G1 X114.945 Y152.834 E.13471
G1 X114.526 Y152.743 E.01344
G1 X114.526 Y148.538 E.13187
G1 X114.107 Y148.538 E.01314
G1 X114.107 Y152.65 E.12895
G1 X113.688 Y152.552 E.0135
G1 X113.688 Y148.538 E.12586
G1 X113.269 Y148.538 E.01314
G1 X113.269 Y152.451 E.1227
G1 X112.85 Y152.344 E.01355
G1 X112.85 Y148.538 E.11936
G1 X112.431 Y148.538 E.01314
G1 X112.431 Y152.236 E.11596
G1 X112.012 Y152.121 E.01362
G1 X112.012 Y148.538 E.11237
G1 X111.593 Y148.538 E.01314
G1 X111.593 Y152.005 E.10872
G1 X111.174 Y151.882 E.01369
G1 X111.174 Y146.23 E.17721
G1 X110.755 Y146.23 E.01314
G1 X110.755 Y151.758 E.17332
G1 X110.336 Y151.627 E.01377
G1 X110.336 Y146.23 E.1692
G1 X109.917 Y146.23 E.01314
G1 X109.917 Y151.495 E.16506
G1 X109.498 Y151.355 E.01385
G1 X109.498 Y146.23 E.16068
G1 X109.079 Y146.23 E.01314
G1 X109.079 Y151.215 E.15628
G1 X108.66 Y151.066 E.01394
G1 X108.66 Y146.23 E.15163
G1 X108.241 Y146.23 E.01314
G1 X108.241 Y150.917 E.14695
G1 X107.822 Y150.761 E.01403
G1 X107.822 Y146.23 E.14204
G1 X107.403 Y146.23 E.01314
G1 X107.403 Y150.602 E.13708
G1 X106.984 Y150.437 E.01412
G1 X106.984 Y146.23 E.1319
G1 X106.84 Y146.23 E.0045
G1 X106.84 Y143.923 E.07234
G1 X106.565 Y143.923 E.00863
G1 X106.565 Y150.27 E.19899
G1 X106.146 Y150.096 E.01422
G1 X106.146 Y143.923 E.19354
G1 X105.727 Y143.923 E.01314
G1 X105.727 Y149.919 E.18799
G1 X105.308 Y149.737 E.01433
G1 X105.308 Y143.923 E.18228
G1 X104.889 Y143.923 E.01314
G1 X104.889 Y149.55 E.17642
G1 X104.47 Y149.359 E.01444
G1 X104.47 Y143.923 E.17043
G1 X104.051 Y143.923 E.01314
G1 X104.051 Y149.162 E.16425
G1 X103.632 Y148.962 E.01456
G1 X103.632 Y143.923 E.15798
G1 X103.213 Y143.923 E.01314
G1 X103.213 Y148.754 E.15147
G1 X102.794 Y148.545 E.01468
G1 X102.794 Y143.923 E.14492
G1 X102.375 Y143.923 E.01314
G1 X102.375 Y148.327 E.13807
G1 X101.956 Y148.107 E.01484
G1 X101.956 Y141.616 E.20351
G1 X101.537 Y141.616 E.01314
G1 X101.537 Y147.879 E.19637
G1 X101.118 Y147.648 E.01501
G1 X101.118 Y141.616 E.18911
G1 X100.699 Y141.616 E.01314
G1 X100.699 Y147.411 E.18167
G1 X100.55 Y147.326 E.00538
G1 X100.28 Y147.167 E.00982
G1 X100.28 Y141.616 E.17404
G1 X99.919 Y141.616 E.01133
G1 X99.919 Y139.309 E.07234
G1 X99.861 Y139.309 E.00181
G1 X99.861 Y146.92 E.23864
G1 X99.442 Y146.664 E.01539
G1 X99.442 Y139.309 E.23062
G1 X99.023 Y139.309 E.01314
G1 X99.023 Y146.406 E.22251
G1 X98.604 Y146.139 E.01558
G1 X98.604 Y139.309 E.21414
G1 X98.185 Y139.309 E.01314
G1 X98.185 Y145.867 E.20562
G1 X97.766 Y145.59 E.01576
G1 X97.766 Y139.309 E.19692
G1 X97.612 Y139.309 E.00484
G1 X97.612 Y137.002 E.07234
G1 X97.348 Y137.002 E.00829
G1 X97.348 Y145.305 E.26031
G1 X96.929 Y145.016 E.01595
G1 X96.929 Y137.002 E.25126
G1 X96.51 Y137.002 E.01314
G1 X96.51 Y144.717 E.24189
G1 X96.091 Y144.413 E.01622
G1 X96.091 Y137.002 E.23237
G1 X95.672 Y137.002 E.01314
G1 X95.672 Y144.103 E.22264
G1 X95.253 Y143.784 E.01651
G1 X95.253 Y134.695 E.28498
